X:3010
T:Colored Aristocracy - G
T:Southern Aristocracy
R:Reel
C:Trad.
O:USA; South
Z:Paul Hardy's Session Tunebook 2022 (see www.paulhardy.net). Creative Commons cc by-nc-sa licenced.
M:4/4
L:1/8
Q:1/4=120
K:G
(3DEF|:"G"G2GG E2D2|G2GG G2GA|"Em/maj"B2d2 BAG2|E2EE E2z2|"C"e2ef gfe2|
|:"G"g2ff e2d2|"Em"e2ee e2e2-|"C"e2eg e2dB|"Em"B2BB B2z2|"C"edef gfe2|

